X:6420
T:Talk me out of it
O:england
N:1994
M:4/4
C:Andy Hornby
A:Lancaster
K:D
A>G|F>Ad>c B>AG>F | G>Ee>d c>BA>G | \
F>Ad>c B>Ge>d | c>BA>^G A2-A>=G | \
F>Ad>c B>AG>F | G>Ee>d c2a>g | \
f>ed>c B>ge>c | d2d>cd2::\
e>f | g>bg>e c>de>c | f>af>d B2c>d | \
e>ge>d c>ec>B | A>BG>A F2 (3def | \
g>bg>e (3fga f>d | e>ge>c d>ef>g | \
a>fg>e (3fed e>c | d2d>c d2:|
W:Copyright (C) Andy Hornby


